assets/icon/whatsapp.svg

<svg height="800" viewBox="0 0 48 48" width="800" xmlns="http://www.w3.org/2000/svg"><path d="m723.993033 360c-13.230781 0-23.993033 10.765287-23.993033 23.999801 0 5.24865 1.692661 10.116224 4.570026 14.067146l-2.990421 8.916851 9.224844-2.948259c3.794156 2.511436 8.321985 3.964461 13.202518 3.964461 13.230781 0 23.993033-10.765685 23.993033-23.999801 0-13.234514-10.762252-23.999801-23.993033-23.999801h-.013934zm-6.700183 12.190836c-.465362-1.114556-.818066-1.156765-1.523076-1.185435-.240046-.013937-.50756-.027874-.804134-.027874-.91719 0-1.876178.267987-2.454597.860506-.70501.719544-2.4542 2.398347-2.4542 5.841169 0 3.442821 2.510728 6.772554 2.849101 7.238446.352704.465095 4.894864 7.632662 11.947353 10.553844 5.515082 2.285657 7.151613 2.073815 8.406777 1.805828 1.833584-.395012 4.132928-1.750081 4.711347-3.386277.578419-1.636993.578419-3.033872.408834-3.330131-.169187-.29626-.634947-.465096-1.339957-.818297-.70501-.352804-4.132928-2.045942-4.781808-2.271721-.634947-.239715-1.241231-.154899-1.720527.522436-.677144.945323-1.339957 1.90498-1.876178 2.483164-.423166.451557-1.114641.508101-1.692662.267987-.775869-.324133-2.947825-1.086683-5.628138-3.471093-2.073629-1.848038-3.484047-4.147632-3.892881-4.838904-.409233-.705209-.042197-1.114955.281844-1.495632.352705-.43762.691078-.747816 1.043782-1.157164.352704-.40895.550154-.620791.775869-1.10062.240046-.465493.070461-.945322-.098725-1.298126-.169187-.352803-1.579605-3.795625-2.158024-5.192106z" fill="#67c15e" fill-rule="evenodd" transform="translate(-700 -360)"/></svg>

<?xml version="1.0" encoding="UTF-8" standalone="no"?>
<!-- Uploaded to: SVG Repo, www.svgrepo.com, Generator: SVG Repo Mixer Tools -->
<svg width="800px" height="800px" viewBox="0 0 48 48" version="1.1" xmlns="http://www.w3.org/2000/svg" xmlns:xlink="http://www.w3.org/1999/xlink">
    
    <title>Whatsapp-color</title>
    <desc>Created with Sketch.</desc>
    <defs>

</defs>
    <g id="Icons" stroke="none" stroke-width="1" fill="none" fill-rule="evenodd">
        <g id="Color-" transform="translate(-700.000000, -360.000000)" fill="#67C15E">
            <path d="M723.993033,360 C710.762252,360 700,370.765287 700,383.999801 C700,389.248451 701.692661,394.116025 704.570026,398.066947 L701.579605,406.983798 L710.804449,404.035539 C714.598605,406.546975 719.126434,408 724.006967,408 C737.237748,408 748,397.234315 748,384.000199 C748,370.765685 737.237748,360.000398 724.006967,360.000398 L723.993033,360.000398 L723.993033,360 Z M717.29285,372.190836 C716.827488,371.07628 716.474784,371.034071 715.769774,371.005401 C715.529728,370.991464 715.262214,370.977527 714.96564,370.977527 C714.04845,370.977527 713.089462,371.245514 712.511043,371.838033 C711.806033,372.557577 710.056843,374.23638 710.056843,377.679202 C710.056843,381.122023 712.567571,384.451756 712.905944,384.917648 C713.258648,385.382743 717.800808,392.55031 724.853297,395.471492 C730.368379,397.757149 732.00491,397.545307 733.260074,397.27732 C735.093658,396.882308 737.393002,395.527239 737.971421,393.891043 C738.54984,392.25405 738.54984,390.857171 738.380255,390.560912 C738.211068,390.264652 737.745308,390.095816 737.040298,389.742615 C736.335288,389.389811 732.90737,387.696673 732.25849,387.470894 C731.623543,387.231179 731.017259,387.315995 730.537963,387.99333 C729.860819,388.938653 729.198006,389.89831 728.661785,390.476494 C728.238619,390.928051 727.547144,390.984595 726.969123,390.744481 C726.193254,390.420348 724.021298,389.657798 721.340985,387.273388 C719.267356,385.42535 717.856938,383.125756 717.448104,382.434484 C717.038871,381.729275 717.405907,381.319529 717.729948,380.938852 C718.082653,380.501232 718.421026,380.191036 718.77373,379.781688 C719.126434,379.372738 719.323884,379.160897 719.549599,378.681068 C719.789645,378.215575 719.62006,377.735746 719.450874,377.382942 C719.281687,377.030139 717.871269,373.587317 717.29285,372.190836 Z" id="Whatsapp">

</path>
        </g>
    </g>
</svg>
